dist/img/svg/ic_star.svg

<svg width="13" height="12" viewBox="0 0 13 12"  xmlns="http://www.w3.org/2000/svg">
<path d="M8.19537 3.97796L8.31361 4.20937L8.57094 4.24559L12.3223 4.77358L9.61774 7.32637L9.42142 7.51167L9.46865 7.77747L10.1127 11.4016L6.72671 9.67912L6.5 9.56378L6.27329 9.67912L2.88729 11.4016L3.53135 7.77747L3.57866 7.51123L3.38176 7.3259L0.67118 4.7745L4.42906 4.24559L4.68639 4.20937L4.80463 3.97796L6.5 0.659715L8.19537 3.97796ZM10.1397 11.6348C10.1396 11.6348 10.1397 11.6338 10.1402 11.632C10.14 11.634 10.1398 11.6349 10.1397 11.6348ZM2.85208 11.6296C2.85203 11.6296 2.85186 11.6288 2.85173 11.6271L2.85208 11.6296Z" stroke="#E0171A"/>
</svg>

<svg width="13" height="12" viewBox="0 0 13 12" xmlns="http://www.w3.org/2000/svg"><path d="M8.195 3.978l.119.231.257.037 3.751.528-2.704 2.552-.197.186.048.265.644 3.625-3.386-1.723-.227-.115-.227.115-3.386 1.723.644-3.625.048-.266-.197-.185-2.71-2.551 3.757-.53.257-.036.119-.231L6.5.66l1.695 3.318zm1.945 7.657v-.003.003zm-7.288-.005v-.003.003z" stroke="#E0171A"/></svg>
